report_00007_2020-12-11T15:55:29.892Z/meta/score/comparison/sorted/4_vs_5.svg

<svg width="640" height="500" xmlns="http://www.w3.org/2000/svg" xmlns:xlink="http://www.w3.org/1999/xlink"><path fill="#fff" d="M0 0h640v500H0z"/><defs><path id="d" stroke-width=".222" stroke="currentColor" d="M-1-1h2v2h-2z"/><path id="b" stroke-width=".222" stroke="currentColor" d="M0-1.33l-1.33 2h2.66z"/><path id="f" stroke-width=".222" stroke="currentColor" d="M0 1.33L1.265.411.782-1.067l-1.564-.009-.483 1.487z"/><use xlink:href="#b" id="c" stroke="currentColor" transform="rotate(180)"/><use xlink:href="#d" id="e" stroke="currentColor" transform="rotate(45)"/><circle id="a" stroke-width=".222" stroke="currentColor" cx="0" cy="0" r="1"/></defs><g fill="none" color="#000" stroke="currentColor"><path stroke="#000" d="M62.2 384.5h9m543.8 0h-9"/><text transform="translate(53.9 388.4)" stroke="none" fill="#000" font-family="Arial" font-size="12" text-anchor="end"><tspan>0.7</tspan></text></g><g fill="none" color="#000" stroke="currentColor"><path stroke="#000" d="M62.2 301h9m543.8 0h-9"/><text transform="translate(53.9 304.9)" stroke="none" fill="#000" font-family="Arial" font-size="12" text-anchor="end"><tspan>0.71</tspan></text></g><g fill="none" color="#000" stroke="currentColor"><path stroke="#000" d="M62.2 217.6h9m543.8 0h-9"/><text transform="translate(53.9 221.5)" stroke="none" fill="#000" font-family="Arial" font-size="12" text-anchor="end"><tspan>0.72</tspan></text></g><g fill="none" color="#000" stroke="currentColor"><path stroke="#000" d="M62.2 134.1h9m543.8 0h-9"/><text transform="translate(53.9 138)" stroke="none" fill="#000" font-family="Arial" font-size="12" text-anchor="end"><tspan>0.73</tspan></text></g><g fill="none" color="#000" stroke="currentColor"><path stroke="#000" d="M62.2 50.6h9m543.8 0h-9"/><text transform="translate(53.9 54.5)" stroke="none" fill="#000" font-family="Arial" font-size="12" text-anchor="end"><tspan>0.74</tspan></text></g><g fill="none" color="#000" stroke="currentColor"><path stroke="#000" d="M62.2 446v-9m0-418.9v9"/><text transform="translate(62.2 467.9)" stroke="none" fill="#000" font-family="Arial" font-size="12" text-anchor="middle"><tspan>0</tspan></text></g><g fill="none" color="#000" stroke="currentColor"><path stroke="#000" d="M118 446v-9m0-418.9v9"/><text transform="translate(118 467.9)" stroke="none" fill="#000" font-family="Arial" font-size="12" text-anchor="middle"><tspan>10</tspan></text></g><g fill="none" color="#000" stroke="currentColor"><path stroke="#000" d="M173.9 446v-9m0-418.9v9"/><text transform="translate(173.9 467.9)" stroke="none" fill="#000" font-family="Arial" font-size="12" text-anchor="middle"><tspan>20</tspan></text></g><g fill="none" color="#000" stroke="currentColor"><path stroke="#000" d="M229.7 446v-9m0-418.9v9"/><text transform="translate(229.7 467.9)" stroke="none" fill="#000" font-family="Arial" font-size="12" text-anchor="middle"><tspan>30</tspan></text></g><g fill="none" color="#000" stroke="currentColor"><path stroke="#000" d="M285.6 446v-9m0-418.9v9"/><text transform="translate(285.6 467.9)" stroke="none" fill="#000" font-family="Arial" font-size="12" text-anchor="middle"><tspan>40</tspan></text></g><g fill="none" color="#000" stroke="currentColor"><path stroke="#000" d="M341.4 446v-9m0-418.9v9"/><text transform="translate(341.4 467.9)" stroke="none" fill="#000" font-family="Arial" font-size="12" text-anchor="middle"><tspan>50</tspan></text></g><g fill="none" color="#000" stroke="currentColor"><path stroke="#000" d="M397.2 446v-9m0-418.9v9"/><text transform="translate(397.2 467.9)" stroke="none" fill="#000" font-family="Arial" font-size="12" text-anchor="middle"><tspan>60</tspan></text></g><g fill="none" color="#000" stroke="currentColor"><path stroke="#000" d="M453.1 446v-9m0-418.9v9"/><text transform="translate(453.1 467.9)" stroke="none" fill="#000" font-family="Arial" font-size="12" text-anchor="middle"><tspan>70</tspan></text></g><g fill="none" color="#000" stroke="currentColor"><path stroke="#000" d="M508.9 446v-9m0-418.9v9"/><text transform="translate(508.9 467.9)" stroke="none" fill="#000" font-family="Arial" font-size="12" text-anchor="middle"><tspan>80</tspan></text></g><g fill="none" color="#000" stroke="currentColor"><path stroke="#000" d="M564.7 446v-9m0-418.9v9"/><text transform="translate(564.7 467.9)" stroke="none" fill="#000" font-family="Arial" font-size="12" text-anchor="middle"><tspan>90</tspan></text></g><path stroke="#000" d="M62.2 18.1V446H615V18.1H62.2z" fill="none" color="#000"/><text transform="translate(279.8 485.9)" stroke="none" fill="#000" font-family="Arial" font-size="12" text-anchor="end" color="#000"><tspan>pages+cached+noadtech</tspan></text><path stroke="#9400D3" d="M288.1 482h42.2M62.2 385.6l5.6-27 5.6-2.9 5.6-1.8 5.5-32.7 5.6-.3h5.6l5.6-.1 5.6-.3 5.6-.8 5.5-.2 5.6-.1h5.6l5.6-.1 5.6-.6 5.6-.6 5.5-10 5.6-1.6 5.6-.1 5.6-2.6 5.6-33.2 5.6-24.2 5.5-.6 5.6-.5 5.6-.2 5.6-.3 5.6-.2 5.6-.2 5.5-.1 5.6-12.4 5.6-2 5.6-12.6 5.6-.7 5.6-.5 5.6-.2 5.5-.2h5.6l5.6-.2 5.6-.2 5.6-.1 5.6-.3h11.1l5.6-1 5.6-.1 5.6-1.1 5.6-10 5.5-.2h5.6l5.6-.8 5.6-1.1 5.6-1.3 5.6-8.4 5.5-.6 5.6-.2 5.6-.7 5.6-.2 5.6-.5 5.6-.1 5.5-11.7 5.6-.3 5.6-1.9 5.6-1.5 5.6-.6 5.6-.1 5.5-.5 5.6-.1h5.6l5.6-.4h5.6l5.6-.1 5.6-.5 5.5-.2 5.6-.4 5.6-23.9 5.6-.3 5.6-.1 5.6-.1 5.5-.1 5.6-1.1h5.6l5.6-.9 5.6-.1 5.6-51.5 5.5-41.9 5.6-.8h5.6l5.6-.1 5.6-.4 5.6-.1 5.5-.5 5.6-.4 5.6-.3 5.6-.2 5.6-.2 5.6-.3 5.5-.2 5.6-.2h5.6l5.6-20.2" fill="none" color="#000"/><text transform="translate(529.5 485.9)" stroke="none" fill="#000" font-family="Arial" font-size="12" text-anchor="end" color="#000"><tspan>pages+cached+noexternal</tspan></text><path stroke="#009E73" d="M537.8 482H580M62.2 437.7l5.6-.6 5.6-1.3 5.6-.4 5.5-75.3 5.6-.2 5.6-1.1 5.6-1.1 5.6-.2 5.6-.5h5.5l5.6-.6 5.6-1 5.6-10.9 5.6-1.8 5.6-21.6 5.5-.4 5.6-.3 5.6-.5 5.6-.5 5.6-.5 5.6-5.3 5.5-61.3 5.6-.2 5.6-1.1 5.6-.1 5.6-.6 5.6-.1h5.5l5.6-.7h5.6l5.6-.5 5.6-.1 5.6-11 5.6-1.4 5.5-10.6h5.6l5.6-.2 5.6-.2 5.6-.3 5.6-1 5.5-6.1 5.6-.2 5.6-.2 5.6-.6 5.6-.1 5.6-.1 5.5-.9 5.6-.4 5.6-.6h5.6l5.6-.2 5.6-.1 5.5-2.6 5.6-.3 5.6-6.6 5.6-.5 5.6-.3 5.6-1.1 5.5-.1 5.6-12.3 5.6-8.5 5.6-.5 5.6-.2 5.6-.2 5.5-.3h5.6l5.6-.1h5.6l5.6-.2 5.6-.1h5.6l5.5-.5 5.6-.2 5.6-.9 5.6-5.6 5.6-.7 5.6-.3 5.5-.1 5.6-.3 5.6-.8 5.6-.2 5.6-.1 5.6-.2 5.5-.1 5.6-24.1 5.6-.6 5.6-.1h5.6l5.6-.1 5.5-.3 5.6-93.6 5.6-.2 5.6-.8 5.6-.2 5.6-1.3h5.5l5.6-.2h5.6l5.6-1.2" fill="none" color="#000"/><g fill="none" color="#000" stroke="currentColor"><path stroke="#000" d="M62.2 18.1V446H615V18.1H62.2z"/></g></svg>

<?xml version="1.0" encoding="utf-8"  standalone="no"?>
<svg 
 width="640" height="500"
 viewBox="0 0 640 500"
 xmlns="http://www.w3.org/2000/svg"
 xmlns:xlink="http://www.w3.org/1999/xlink"
>

<title>Gnuplot</title>
<desc>Produced by GNUPLOT 5.4 patchlevel 0 </desc>

<g id="gnuplot_canvas">

<rect x="0" y="0" width="640" height="500" fill="#ffffff"/>
<defs>

	<circle id='gpDot' r='0.5' stroke-width='0.5' stroke='currentColor'/>
	<path id='gpPt0' stroke-width='0.222' stroke='currentColor' d='M-1,0 h2 M0,-1 v2'/>
	<path id='gpPt1' stroke-width='0.222' stroke='currentColor' d='M-1,-1 L1,1 M1,-1 L-1,1'/>
	<path id='gpPt2' stroke-width='0.222' stroke='currentColor' d='M-1,0 L1,0 M0,-1 L0,1 M-1,-1 L1,1 M-1,1 L1,-1'/>
	<rect id='gpPt3' stroke-width='0.222' stroke='currentColor' x='-1' y='-1' width='2' height='2'/>
	<rect id='gpPt4' stroke-width='0.222' stroke='currentColor' fill='currentColor' x='-1' y='-1' width='2' height='2'/>
	<circle id='gpPt5' stroke-width='0.222' stroke='currentColor' cx='0' cy='0' r='1'/>
	<use xlink:href='#gpPt5' id='gpPt6' fill='currentColor' stroke='none'/>
	<path id='gpPt7' stroke-width='0.222' stroke='currentColor' d='M0,-1.33 L-1.33,0.67 L1.33,0.67 z'/>
	<use xlink:href='#gpPt7' id='gpPt8' fill='currentColor' stroke='none'/>
	<use xlink:href='#gpPt7' id='gpPt9' stroke='currentColor' transform='rotate(180)'/>
	<use xlink:href='#gpPt9' id='gpPt10' fill='currentColor' stroke='none'/>
	<use xlink:href='#gpPt3' id='gpPt11' stroke='currentColor' transform='rotate(45)'/>
	<use xlink:href='#gpPt11' id='gpPt12' fill='currentColor' stroke='none'/>
	<path id='gpPt13' stroke-width='0.222' stroke='currentColor' d='M0,1.330 L1.265,0.411 L0.782,-1.067 L-0.782,-1.076 L-1.265,0.411 z'/>
	<use xlink:href='#gpPt13' id='gpPt14' fill='currentColor' stroke='none'/>
	<filter id='textbox' filterUnits='objectBoundingBox' x='0' y='0' height='1' width='1'>
	  <feFlood flood-color='#FFFFFF' flood-opacity='1' result='bgnd'/>
	  <feComposite in='SourceGraphic' in2='bgnd' operator='atop'/>
	</filter>
	<filter id='greybox' filterUnits='objectBoundingBox' x='0' y='0' height='1' width='1'>
	  <feFlood flood-color='lightgrey' flood-opacity='1' result='grey'/>
	  <feComposite in='SourceGraphic' in2='grey' operator='atop'/>
	</filter>
</defs>
<g fill="none" color="#FFFFFF" stroke="black" stroke-width="1.00" stroke-linecap="butt" stroke-linejoin="miter">
</g>
<g fill="none" color="black" stroke="currentColor" stroke-width="1.00" stroke-linecap="butt" stroke-linejoin="miter">
	<path stroke='black'  d='M62.2,384.5 L71.2,384.5 M615.0,384.5 L606.0,384.5  '/>	<g transform="translate(53.9,388.4)" stroke="none" fill="black" font-family="Arial" font-size="12.00"  text-anchor="end">
		<text><tspan font-family="Arial" > 0.7</tspan></text>
	</g>
</g>
<g fill="none" color="black" stroke="currentColor" stroke-width="1.00" stroke-linecap="butt" stroke-linejoin="miter">
	<path stroke='black'  d='M62.2,301.0 L71.2,301.0 M615.0,301.0 L606.0,301.0  '/>	<g transform="translate(53.9,304.9)" stroke="none" fill="black" font-family="Arial" font-size="12.00"  text-anchor="end">
		<text><tspan font-family="Arial" > 0.71</tspan></text>
	</g>
</g>
<g fill="none" color="black" stroke="currentColor" stroke-width="1.00" stroke-linecap="butt" stroke-linejoin="miter">
	<path stroke='black'  d='M62.2,217.6 L71.2,217.6 M615.0,217.6 L606.0,217.6  '/>	<g transform="translate(53.9,221.5)" stroke="none" fill="black" font-family="Arial" font-size="12.00"  text-anchor="end">
		<text><tspan font-family="Arial" > 0.72</tspan></text>
	</g>
</g>
<g fill="none" color="black" stroke="currentColor" stroke-width="1.00" stroke-linecap="butt" stroke-linejoin="miter">
	<path stroke='black'  d='M62.2,134.1 L71.2,134.1 M615.0,134.1 L606.0,134.1  '/>	<g transform="translate(53.9,138.0)" stroke="none" fill="black" font-family="Arial" font-size="12.00"  text-anchor="end">
		<text><tspan font-family="Arial" > 0.73</tspan></text>
	</g>
</g>
<g fill="none" color="black" stroke="currentColor" stroke-width="1.00" stroke-linecap="butt" stroke-linejoin="miter">
	<path stroke='black'  d='M62.2,50.6 L71.2,50.6 M615.0,50.6 L606.0,50.6  '/>	<g transform="translate(53.9,54.5)" stroke="none" fill="black" font-family="Arial" font-size="12.00"  text-anchor="end">
		<text><tspan font-family="Arial" > 0.74</tspan></text>
	</g>
</g>
<g fill="none" color="black" stroke="currentColor" stroke-width="1.00" stroke-linecap="butt" stroke-linejoin="miter">
	<path stroke='black'  d='M62.2,446.0 L62.2,437.0 M62.2,18.1 L62.2,27.1  '/>	<g transform="translate(62.2,467.9)" stroke="none" fill="black" font-family="Arial" font-size="12.00"  text-anchor="middle">
		<text><tspan font-family="Arial" > 0</tspan></text>
	</g>
</g>
<g fill="none" color="black" stroke="currentColor" stroke-width="1.00" stroke-linecap="butt" stroke-linejoin="miter">
	<path stroke='black'  d='M118.0,446.0 L118.0,437.0 M118.0,18.1 L118.0,27.1  '/>	<g transform="translate(118.0,467.9)" stroke="none" fill="black" font-family="Arial" font-size="12.00"  text-anchor="middle">
		<text><tspan font-family="Arial" > 10</tspan></text>
	</g>
</g>
<g fill="none" color="black" stroke="currentColor" stroke-width="1.00" stroke-linecap="butt" stroke-linejoin="miter">
	<path stroke='black'  d='M173.9,446.0 L173.9,437.0 M173.9,18.1 L173.9,27.1  '/>	<g transform="translate(173.9,467.9)" stroke="none" fill="black" font-family="Arial" font-size="12.00"  text-anchor="middle">
		<text><tspan font-family="Arial" > 20</tspan></text>
	</g>
</g>
<g fill="none" color="black" stroke="currentColor" stroke-width="1.00" stroke-linecap="butt" stroke-linejoin="miter">
	<path stroke='black'  d='M229.7,446.0 L229.7,437.0 M229.7,18.1 L229.7,27.1  '/>	<g transform="translate(229.7,467.9)" stroke="none" fill="black" font-family="Arial" font-size="12.00"  text-anchor="middle">
		<text><tspan font-family="Arial" > 30</tspan></text>
	</g>
</g>
<g fill="none" color="black" stroke="currentColor" stroke-width="1.00" stroke-linecap="butt" stroke-linejoin="miter">
	<path stroke='black'  d='M285.6,446.0 L285.6,437.0 M285.6,18.1 L285.6,27.1  '/>	<g transform="translate(285.6,467.9)" stroke="none" fill="black" font-family="Arial" font-size="12.00"  text-anchor="middle">
		<text><tspan font-family="Arial" > 40</tspan></text>
	</g>
</g>
<g fill="none" color="black" stroke="currentColor" stroke-width="1.00" stroke-linecap="butt" stroke-linejoin="miter">
	<path stroke='black'  d='M341.4,446.0 L341.4,437.0 M341.4,18.1 L341.4,27.1  '/>	<g transform="translate(341.4,467.9)" stroke="none" fill="black" font-family="Arial" font-size="12.00"  text-anchor="middle">
		<text><tspan font-family="Arial" > 50</tspan></text>
	</g>
</g>
<g fill="none" color="black" stroke="currentColor" stroke-width="1.00" stroke-linecap="butt" stroke-linejoin="miter">
	<path stroke='black'  d='M397.2,446.0 L397.2,437.0 M397.2,18.1 L397.2,27.1  '/>	<g transform="translate(397.2,467.9)" stroke="none" fill="black" font-family="Arial" font-size="12.00"  text-anchor="middle">
		<text><tspan font-family="Arial" > 60</tspan></text>
	</g>
</g>
<g fill="none" color="black" stroke="currentColor" stroke-width="1.00" stroke-linecap="butt" stroke-linejoin="miter">
	<path stroke='black'  d='M453.1,446.0 L453.1,437.0 M453.1,18.1 L453.1,27.1  '/>	<g transform="translate(453.1,467.9)" stroke="none" fill="black" font-family="Arial" font-size="12.00"  text-anchor="middle">
		<text><tspan font-family="Arial" > 70</tspan></text>
	</g>
</g>
<g fill="none" color="black" stroke="currentColor" stroke-width="1.00" stroke-linecap="butt" stroke-linejoin="miter">
	<path stroke='black'  d='M508.9,446.0 L508.9,437.0 M508.9,18.1 L508.9,27.1  '/>	<g transform="translate(508.9,467.9)" stroke="none" fill="black" font-family="Arial" font-size="12.00"  text-anchor="middle">
		<text><tspan font-family="Arial" > 80</tspan></text>
	</g>
</g>
<g fill="none" color="black" stroke="currentColor" stroke-width="1.00" stroke-linecap="butt" stroke-linejoin="miter">
	<path stroke='black'  d='M564.7,446.0 L564.7,437.0 M564.7,18.1 L564.7,27.1  '/>	<g transform="translate(564.7,467.9)" stroke="none" fill="black" font-family="Arial" font-size="12.00"  text-anchor="middle">
		<text><tspan font-family="Arial" > 90</tspan></text>
	</g>
</g>
<g fill="none" color="black" stroke="currentColor" stroke-width="1.00" stroke-linecap="butt" stroke-linejoin="miter">
</g>
<g fill="none" color="black" stroke="currentColor" stroke-width="1.00" stroke-linecap="butt" stroke-linejoin="miter">
	<path stroke='black'  d='M62.2,18.1 L62.2,446.0 L615.0,446.0 L615.0,18.1 L62.2,18.1 Z  '/></g>
<g fill="none" color="black" stroke="currentColor" stroke-width="1.00" stroke-linecap="butt" stroke-linejoin="miter">
</g>
	<g id="gnuplot_plot_1" ><title>pages+cached+noadtech</title>
<g fill="none" color="black" stroke="currentColor" stroke-width="1.00" stroke-linecap="butt" stroke-linejoin="miter">
	<g transform="translate(279.8,485.9)" stroke="none" fill="black" font-family="Arial" font-size="12.00"  text-anchor="end">
		<text><tspan font-family="Arial" >pages+cached+noadtech</tspan></text>
	</g>
</g>
<g fill="none" color="black" stroke="currentColor" stroke-width="1.00" stroke-linecap="butt" stroke-linejoin="miter">
	<path stroke='rgb(148,   0, 211)'  d='M288.1,482.0 L330.3,482.0 M62.2,385.6 L67.8,358.6 L73.4,355.7 L79.0,353.9 L84.5,321.2 L90.1,320.9
		L95.7,320.9 L101.3,320.8 L106.9,320.5 L112.5,319.7 L118.0,319.5 L123.6,319.4 L129.2,319.4 L134.8,319.3
		L140.4,318.7 L146.0,318.1 L151.5,308.1 L157.1,306.5 L162.7,306.4 L168.3,303.8 L173.9,270.6 L179.5,246.4
		L185.0,245.8 L190.6,245.3 L196.2,245.1 L201.8,244.8 L207.4,244.6 L213.0,244.4 L218.5,244.3 L224.1,231.9
		L229.7,229.9 L235.3,217.3 L240.9,216.6 L246.5,216.1 L252.1,215.9 L257.6,215.7 L263.2,215.7 L268.8,215.5
		L274.4,215.3 L280.0,215.2 L285.6,214.9 L291.1,214.9 L296.7,214.9 L302.3,213.9 L307.9,213.8 L313.5,212.7
		L319.1,202.7 L324.6,202.5 L330.2,202.5 L335.8,201.7 L341.4,200.6 L347.0,199.3 L352.6,190.9 L358.1,190.3
		L363.7,190.1 L369.3,189.4 L374.9,189.2 L380.5,188.7 L386.1,188.6 L391.6,176.9 L397.2,176.6 L402.8,174.7
		L408.4,173.2 L414.0,172.6 L419.6,172.5 L425.1,172.0 L430.7,171.9 L436.3,171.9 L441.9,171.5 L447.5,171.5
		L453.1,171.4 L458.7,170.9 L464.2,170.7 L469.8,170.3 L475.4,146.4 L481.0,146.1 L486.6,146.0 L492.2,145.9
		L497.7,145.8 L503.3,144.7 L508.9,144.7 L514.5,143.8 L520.1,143.7 L525.7,92.2 L531.2,50.3 L536.8,49.5
		L542.4,49.5 L548.0,49.4 L553.6,49.0 L559.2,48.9 L564.7,48.4 L570.3,48.0 L575.9,47.7 L581.5,47.5
		L587.1,47.3 L592.7,47.0 L598.2,46.8 L603.8,46.6 L609.4,46.6 L615.0,26.4  '/></g>
	</g>
	<g id="gnuplot_plot_2" ><title>pages+cached+noexternal</title>
<g fill="none" color="black" stroke="currentColor" stroke-width="1.00" stroke-linecap="butt" stroke-linejoin="miter">
	<g transform="translate(529.5,485.9)" stroke="none" fill="black" font-family="Arial" font-size="12.00"  text-anchor="end">
		<text><tspan font-family="Arial" >pages+cached+noexternal</tspan></text>
	</g>
</g>
<g fill="none" color="black" stroke="currentColor" stroke-width="1.00" stroke-linecap="butt" stroke-linejoin="miter">
	<path stroke='rgb(  0, 158, 115)'  d='M537.8,482.0 L580.0,482.0 M62.2,437.7 L67.8,437.1 L73.4,435.8 L79.0,435.4 L84.5,360.1 L90.1,359.9
		L95.7,358.8 L101.3,357.7 L106.9,357.5 L112.5,357.0 L118.0,357.0 L123.6,356.4 L129.2,355.4 L134.8,344.5
		L140.4,342.7 L146.0,321.1 L151.5,320.7 L157.1,320.4 L162.7,319.9 L168.3,319.4 L173.9,318.9 L179.5,313.6
		L185.0,252.3 L190.6,252.1 L196.2,251.0 L201.8,250.9 L207.4,250.3 L213.0,250.2 L218.5,250.2 L224.1,249.5
		L229.7,249.5 L235.3,249.0 L240.9,248.9 L246.5,237.9 L252.1,236.5 L257.6,225.9 L263.2,225.9 L268.8,225.7
		L274.4,225.5 L280.0,225.2 L285.6,224.2 L291.1,218.1 L296.7,217.9 L302.3,217.7 L307.9,217.1 L313.5,217.0
		L319.1,216.9 L324.6,216.0 L330.2,215.6 L335.8,215.0 L341.4,215.0 L347.0,214.8 L352.6,214.7 L358.1,212.1
		L363.7,211.8 L369.3,205.2 L374.9,204.7 L380.5,204.4 L386.1,203.3 L391.6,203.2 L397.2,190.9 L402.8,182.4
		L408.4,181.9 L414.0,181.7 L419.6,181.5 L425.1,181.2 L430.7,181.2 L436.3,181.1 L441.9,181.1 L447.5,180.9
		L453.1,180.8 L458.7,180.8 L464.2,180.3 L469.8,180.1 L475.4,179.2 L481.0,173.6 L486.6,172.9 L492.2,172.6
		L497.7,172.5 L503.3,172.2 L508.9,171.4 L514.5,171.2 L520.1,171.1 L525.7,170.9 L531.2,170.8 L536.8,146.7
		L542.4,146.1 L548.0,146.0 L553.6,146.0 L559.2,145.9 L564.7,145.6 L570.3,52.0 L575.9,51.8 L581.5,51.0
		L587.1,50.8 L592.7,49.5 L598.2,49.5 L603.8,49.3 L609.4,49.3 L615.0,48.1  '/></g>
	</g>
<g fill="none" color="#FFFFFF" stroke="rgb(  0, 158, 115)" stroke-width="2.00" stroke-linecap="butt" stroke-linejoin="miter">
</g>
<g fill="none" color="black" stroke="currentColor" stroke-width="2.00" stroke-linecap="butt" stroke-linejoin="miter">
</g>
<g fill="none" color="black" stroke="black" stroke-width="1.00" stroke-linecap="butt" stroke-linejoin="miter">
</g>
<g fill="none" color="black" stroke="currentColor" stroke-width="1.00" stroke-linecap="butt" stroke-linejoin="miter">
	<path stroke='black'  d='M62.2,18.1 L62.2,446.0 L615.0,446.0 L615.0,18.1 L62.2,18.1 Z  '/></g>
<g fill="none" color="black" stroke="currentColor" stroke-width="1.00" stroke-linecap="butt" stroke-linejoin="miter">
</g>
</g>
</svg>
